X:1
T:Title
%%score { ( 1 4 ) | ( 2 3 ) }
L:1/8
M:4/4
K:Eb
V:1 treble nm="Grand Piano"
V:4 treble 
V:2 bass 
V:3 bass 
V:1
 z4 z2[Q:1/4=100] [EG][FA] | [GB]2 [GB]2 [GB]2 [EG][FA] | [GB]2 [GB]2 [GB]2 [Ac]B | %3
 [DFA]2 [DFA]2 [DFA]2 [GB]A | G2 G2 G2 GA | [GB]2 [GB]2 [GB]2 [Ge][Gd] | [Ec]2 [Ec]2 [Ec]2 ce | %7
 [EGB]3 [EAc] [GB]A[B,EG]F |[M:3/4] E3 E E2 |[M:1/4] G>B |[M:4/4] e6 z2 | [GB]6 z2 | A6 z2 | %13
 [EG]6 z2 | e6 z2 | d4 z4 | B3 A [EG]2 [DF]2 |[M:3/4] E6 |] %18
V:2
 z4 z2 [E,B,]2 | [E,E]2 [E,E]2 [E,E]2 [E,B,]2 | [E,E]2 [E,E]2 [E,E]2 z G | z4 z2 [B,,B,]2 | %4
 [E,B,E]2 [E,B,E]2 [E,B,E]2 EF | [E,E]2 [E,E]2 [E,E]2 [E,B,]2 | z4 z2 .A,2 | E,3 A,, z F z [A,D] | %8
[M:3/4] [E,G,]3 [E,A,C] [E,G,B,]2 |[M:1/4][K:treble] E>G |[M:4/4] G6[K:bass] z2 | %11
 E,2 E,>E, E,2[K:treble] E>G | F6[K:bass] z2 | E,2 E,>E, E,2[K:treble] E>G | G6[K:bass] z2 | %15
 [G,B,]2 G,>G,[K:treble] [A,C]2 [A,CE]>[A,EA] | [B,EG]3 [B,F][K:bass] [B,,B,]2 [B,,A,]2 | %17
[M:3/4] [E,G,]6 |] %18
V:3
 x8 | x8 | z4 z2 [E,E]2 | B,,2 B,,2 B,,2 z F | z4 z2 [E,B,]2 | x8 | %6
 [A,,A,]2 [A,,A,]2 [A,,A,]2 A,,-[A,,C] | z4 [B,,B,]2 B,,2 |[M:3/4] x6 |[M:1/4][K:treble] x2 | %10
[M:4/4] z2[K:bass] E,>E, E,>E, E,>E, | x6[K:treble] x2 | z2[K:bass] B,,>B,, B,,>B,, B,,>B,, | %13
 x6[K:treble] x2 | z2[K:bass] E,>E, E,>E, E,>[E,B,] | x4[K:treble] x4 | x4[K:bass] x4 | %17
[M:3/4] x6 |] %18
V:4
 x8 | x8 | x8 | x8 | x8 | x8 | z4 z2 E2 | x8 |[M:3/4] x6 |[M:1/4] x2 | %10
[M:4/4] z2 B,>B, B,>[B,GB] [B,EG]>[B,FA] | E2 E>E E2 G>B | z2 D>D D>[B,EG] [B,DF]>[B,FA] | %13
 B,2 B,>B, B,2 G>B | z2 B,>B, B,>[B,GB] [B,EG]>[Ge] | E2- [B,E-]>[B,E-] [Ec]2 A>c | x8 | %17
[M:3/4] x6 |] %18

